X: 27370
T: Mná Na hÉireann
R: barndance
M: 4/4
K: Dmajor
E2F|"em" Gd2-d3-|de2d|"A" cE2-E3-|
E3-EEF|"G" G3-G2F/G/|1 "A" E6-|E6-|E3:|2 "A" A3-AG|"D" F/A/D2-D3-||
D3-D2 D|"Bm" d6-|d3- def|"em" e2d-c BA|
"G" B6-|B3 "A" AGF|"Bm" Ed2-d3-|d3 "em" e2d|
"A" cA2-A3|"em" B3E- "A" E2-|E3-E Dc|"D" d6-|d3||

